X:1
T:Title
%%score { ( 1 3 ) | ( 2 4 ) }
L:1/8
M:4/4
K:Db
V:1 treble nm="Grand Piano"
V:3 treble 
V:2 bass 
V:4 bass 
V:1
 z4 z2[Q:1/4=100] [DF][EG] | [GB][FA][_F=G][=FA] [Fd][DF][FA][Ad] | [Ac]2 B2 B2 EF | G6 z2 | %4
 [DF]6 [DF][EG] | [GB][FA][_F=G][=FA] [Fd][DF][FA][Ad] | [Ac]2 B2 B2 cd | e6 z2 |[M:3/4] A6 | %9
[M:1/4] FG |[M:4/4] A6 z2 | G6 z2 | [EG][=DF][EG][FA] [Gc]2 [GB]2 | [FA-]4 A2 z2 | %14
 [Fe][Fd][Fc][Fd] [FA][DF][EG][FA] | [Ac]B=AB [=Ge][Gd]cB | A2[K:bass] F,D, A,,2[K:treble] e2 | %17
[M:7/8] d2- [Gd-]2 [Fd]3 |] %18
V:2
 z4 z2 [D,A,][D,A,] | [D,D][D,D][D,D][D,D] [D,A,][D,A,][F,D][F,D] | [G,D]2 [G,DG]2 [G,DG]2 z2 | %3
 z2 [A,,A,][B,,A,] [C,A,]2 [A,,A,]2 | [D,A,]6 [D,A,][D,A,] | %5
 [D,D][D,D][D,D][D,D] [D,A,][D,A,][D,D][F,D] | [G,D]2 [G,DG]2 [G,DG]2 z2 | %7
 z2 [E,B,][E,C] [E,D]2 [E,B,E]2 |[M:3/4] [A,CE]6 |[M:1/4] DE |[M:4/4] D,2 A,,2 D,2 A,,2 | %11
 [E,CE]2 [A,,A,]2 [A,,A,]2 CD | [A,,A,]2 [A,,A,]2 [A,,A,]2 [C,A,]2 | %13
 D,2 =D,2 [E,C]2[K:treble] [A,DG][A,G] | [D,A,][D,A,][D,A,][D,A,] [D,D][D,A,][D,A,][D,D] | %15
 [G,D][G,DG][G,CG][G,DG] [E,D][E,B,][K:treble][=G,B,_F][G,DF] | [A,DF]2 z2 z2 [A,CG]2 | %17
[M:7/8][K:bass] z2 B,2 A,3 |] %18
V:3
 x8 | x8 | x8 | z2 CD E2 [CA]2 | x8 | x8 | x8 | z2 =GA B2 G2 |[M:3/4] x6 |[M:1/4] x2 | %10
[M:4/4] [DF]2 [DF]2 [DF]2 [DFB]2 | z2 E2 E2 EF | x8 | D2 _C2 G2 Bc | x8 | x8 | %16
 x2[K:bass] x4[K:treble] x2 |[M:7/8] [DF]2 z z z z2 |] %18
V:4
 x8 | x8 | x8 | x8 | x8 | x8 | x8 | x8 |[M:3/4] x6 |[M:1/4] x2 |[M:4/4] x8 | x8 | x8 | %13
 x6[K:treble] x2 | x8 | x6[K:treble] x2 | x8 |[M:7/8][K:bass] D,-D,-D,- D,- D,3 |] %18

